X:10622
T:McGovern's Reel
S:Treoir, 1991
M:C
I:speed 300
K:G
|:AGAB GEDE | GABd edBd | ea a2 gedB | AcBG AGED | 
EAAB GEDE | GABd edBd | ea a2 gedB AcBG A3 :|
|: agab agef | gedB GABd | egfa gedB | AcBG AGED |
[1 a2ab agef | gedB GABd | (3efg fa gedB | AcBG A3:|
[2EA A2 GEDE | GABd edBd | ea a2 gedB | AcBG A3:|
